common/src/main/resources/icons/plugins/datagrip/funnel-selected.svg

<svg xmlns="http://www.w3.org/2000/svg" width="16" height="16" data-big="true" viewBox="0 0 24 24"><circle cx="12" cy="12" r="12" data-tint="true" opacity=".5"/><path fill="#42A5F5" d="M14 12v7.88c.04.3-.06.62-.29.83a.996.996 0 0 1-1.41 0l-2.01-2.01a.99.99 0 0 1-.29-.83V12h-.03L4.21 4.62a1 1 0 0 1 .17-1.4c.19-.14.4-.22.62-.22h14c.22 0 .43.08.62.22a1 1 0 0 1 .17 1.4L14.03 12z"/></svg>

<!--
  - The MIT License (MIT)
  -
  - Copyright (c) 2015-2024 Elior "Mallowigi" Boukhobza
  -
  - Permission is hereby granted, free of charge, to any person obtaining a copy
  - of this software and associated documentation files (the "Software"), to deal
  - in the Software without restriction, including without limitation the rights
  - to use, copy, modify, merge, publish, distribute, sublicense, and/or sell
  - copies of the Software, and to permit persons to whom the Software is
  - furnished to do so, subject to the following conditions:
  -
  - The above copyright notice and this permission notice shall be included in all
  - copies or substantial portions of the Software.
  -
  - THE SOFTWARE IS PROVIDED "AS IS", WITHOUT WARRANTY OF ANY KIND, EXPRESS OR
  - IMPLIED, INCLUDING BUT NOT LIMITED TO THE WARRANTIES OF MERCHANTABILITY,
  - FITNESS FOR A PARTICULAR PURPOSE AND NONINFRINGEMENT. IN NO EVENT SHALL THE
  - AUTHORS OR COPYRIGHT HOLDERS BE LIABLE FOR ANY CLAIM, DAMAGES OR OTHER
  - LIABILITY, WHETHER IN AN ACTION OF CONTRACT, TORT OR OTHERWISE, ARISING FROM,
  - OUT OF OR IN CONNECTION WITH THE SOFTWARE OR THE USE OR OTHER DEALINGS IN THE
  - SOFTWARE.
  -->


<svg data-big="true" xmlns="http://www.w3.org/2000/svg" version="1.1" width="16px" height="16px" viewBox="0 0 24 24">
  <circle r="12" cx="12" cy="12" data-tint="true" opacity="0.5"/>
  <path fill="#42A5F5"
        d="M14,12V19.88C14.04,20.18 13.94,20.5 13.71,20.71C13.32,21.1 12.69,21.1 12.3,20.71L10.29,18.7C10.06,18.47 9.96,18.16 10,17.87V12H9.97L4.21,4.62C3.87,4.19 3.95,3.56 4.38,3.22C4.57,3.08 4.78,3 5,3V3H19V3C19.22,3 19.43,3.08 19.62,3.22C20.05,3.56 20.13,4.19 19.79,4.62L14.03,12H14Z"/>
</svg>
